X: 1
P: So I'm off with the Good St. Nicholas Boat
C: J. Scott Skinner
C: arr. T. Traub 12-11-1997
M: 6/8
R: jig
K: A
L: 1/8
|: E|"A" Ace e^de|"Adim"fe^d "A"e2 c|"Bm"dcd "E"Bed|"A"c3 c2 A|"A" Ace e^de|"Adim"fe^d "A"e2 c|"Bm"dcd "E"Bec|"A"A3-A2 :|
c |"F#m" cfg agf|"Bm"ded "F#m"c2 c|"F#m"cfg agf|"C#"g3 "E7"g2 g|"D"agf "A"e2 e|"D"fed "A"c2 c|"E"Bef "B7"gaf|"E"eee "E7"e2 e||
"Bm"f2 f fdB |"E"g3 g2 c|"Bm"d2 d "E7"dcB|"A"e3 "E"e2 G|"A"Ace e^de|"D"fe^d "A"e2 c|"Bm"dcd "E"EFG|"A"A3-A |]
